X: 2
T: Captain Dunne's March
Z: ceolachan
S: https://thesession.org/tunes/4764#setting17246
R: barndance
M: 4/4
L: 1/8
K: Dmaj
|: AF |D2 D>D DF AF | G2 E>E E2- EG | FA Bc dA FD | A2 AB AG FE |
D2 D>D DF AF | G2 E>E E2- EG | (3FGA F>D (3EFG E3/[C/F/] | D2 D>D D2 :|
|: A2 |d2 d>d dA FD | G2 E>E E2 cd | e2 ef ed cB | AB cB AG FE |
D2 D>D DF AF | G2 E>E E2 G2 | (3FGA F>D (3EFG E>C | D2 D>D D2 :|
